svgs/sobriety.svg

<svg width="192" height="192" viewBox="0 0 192 192" fill="none" xmlns="http://www.w3.org/2000/svg">
<path d="M142 66.5001C134.544 66.5001 128.5 72.544 128.5 80C128.5 72.544 122.456 66.5001 115 66.5001C122.456 66.5001 128.5 60.456 128.5 53C128.5 60.456 134.544 66.5001 142 66.5001Z" stroke="black" stroke-width="6" stroke-linecap="round" stroke-linejoin="round"/>
<path d="M170 27C114.052 29.8859 74.3073 45.5485 74.6556 64.176C75.3345 100.505 137.057 99.2465 141.659 120.884C146.354 142.97 113.363 164.879 80.1399 165.593C43.3304 166.383 22 161.954 22 151.729C22 141.505 47.7613 124.804 102.918 121.668" stroke="black" stroke-width="12" stroke-linecap="round" stroke-linejoin="round"/>
</svg>

<svg width="192" height="192" viewBox="0 0 192 192" fill="none" xmlns="http://www.w3.org/2000/svg"><path d="M142 66.5c-7.456 0-13.5 6.044-13.5 13.5 0-7.456-6.044-13.5-13.5-13.5 7.456 0 13.5-6.044 13.5-13.5 0 7.456 6.044 13.5 13.5 13.5Z" stroke="#000" stroke-width="6" stroke-linecap="round" stroke-linejoin="round"/><path d="M170 27c-55.948 2.886-95.693 18.548-95.344 37.176.678 36.329 62.401 35.07 67.003 56.708 4.695 22.086-28.296 43.995-61.52 44.709C43.33 166.383 22 161.954 22 151.729c0-10.224 25.761-26.925 80.918-30.061" stroke="#000" stroke-width="12" stroke-linecap="round" stroke-linejoin="round"/></svg>
